!!!OTL: Beim Herumtrinken.
!!!ARE: Europa, Mitteleuropa, Deutschland
!!!SCT: A0321
!!!TXL: @@GMH
!!!YEM: Copyright 1995, estate of Helmut Schaffrath.
**kern	**text
*M4/2	*
*met(c|)	*
*clefC3	*
*k[b-]	*
*g:aeo	*
=1	=1
!LO:TX:a:t=aeol. tr.	!
2ryy	.
{2G	Friſch
2G	auf,
2G	gut
=2	=2
2d	gſel,
2d	laß
2e-	vm-
2e-	-her
=3	=3
1c}	gahn!
{2d	Tu-
2e-	-mel
=4	=4
2f	dich,
2g	gut
1e-	Wein-
=5	=5
1d	-lein!
2r}	.
{2d	Das
=6	=6
2g	glas
2g	ſol
2e-	nit
2e-	lang
=7	=7
2f	ſtil-
2f	-le
1d	ſtan,
=8	=8
2c/	Tu-
2A	-mel
1G}	dich!
=9	=9
{2B-	Tu-
2c/	-mel
1d	dich,
=10	=10
2A	tu-
2B-/	-mel
1c	dich,
=11	=11
2G	tu-
2A	-mel
2B-	dich,
2c/	gut
=12	=12
1A	Weinlein!
1G}	.
=13	=13
{2B-	Tu-
2c/	-mel
1d	dich,
=14	=14
2A	tu-
2B-/	-mel
1c	dich,
=15	=15
2G	tu-
2A	-mel
2B-	dich,
2c/	gut
=16	=16
1A	Weinlein!
1G}	.
=17	=17
{1G	Tu-
1A	-mel
=18-	=18-
1B-	dich,
1c	gut
=19	=19
0A	Weinlein!
=20-	=20-
0G/ll}	.
==	==
!!!GTL: Trink. und Zechlieder, incl. Fastnacht- u. Martinslieder
!!!AGN: Romanze, Ballade, Lied, Trinklied
!! Forster Lieder 4. Theil 1556
!!!ONB: ESAC (Essen Associative Code) Database: ALTDEU
!!!AMT: simple quadruple
!!!AIN: vox
!!!EED: Helmut Schaffrath
!!!EEV: 1.0
!!!RDF**kern: l = terminal long
!!!AMD: Aeolian
!!!URL-scan: https://rosdok.uni-rostock.de/mcrviewer/recordIdentifier/rosdok_ppn738218359/iview2/phys_0472.iview2?x=-1625.8563452843127&y=470.77036515646614&scale=0.28036994991815867&rotation=0&layout=singlePageLayout&logicalDiv=log_0012
!!!ENC: Anna Maria Matuszewska
!!!EEV: 2024/13/03
*-	*-
